X:17
T:Captain Horne
R:pipe strathspey
S:Toby A. Rider, Los Angeles Scottish Fiddler's Association
M:4/4
L:1/8
K:D
d>e|: "D" f>A A/2A/2A "G"B<G d>e|"D"f>A A/2A/2A "A"Be|"D"f>A A/2A/2A
 "G"B<G g|"D"f<ae>d "G"Be:|!
"D"f2 f<d f2 f<a| "D"f2 f<d "A"e>f a2|"D"f>gf>d "G"e>fg>e |1  "A"a>fe>d
 "G"Be |2 "A" a>fe>d "G"B<d d2||
